images/unUSDT.svg

<svg height="250" viewBox="0 0 250 250" width="250" xmlns="http://www.w3.org/2000/svg" xmlns:xlink="http://www.w3.org/1999/xlink"><linearGradient id="a" gradientUnits="userSpaceOnUse" x1="60.19816791278" x2="249.16055933273" y1="-.00000229358" y2="43.7715599832"><stop offset="0" stop-color="#2e73ff"/><stop offset=".894147" stop-color="#184ce8"/></linearGradient><path d="m248.820312 124.410156c0 68.710938-55.699218 124.410156-124.410156 124.410156-68.710937 0-124.410156-55.699218-124.410156-124.410156 0-68.710937 55.699219-124.410156 124.410156-124.410156 68.710938 0 124.410156 55.699219 124.410156 124.410156zm0 0" fill="url(#a)"/><path d="m153.121094 187.890625c-2.632813-2.9375-6.191406-4.40625-10.675782-4.40625-2.636718 0-4.972656.539063-7.007812 1.609375-2 1.050781-3.59375 2.417969-4.789062 4.105469v-5.371094h-13.664063v20.550781c0 2.1875-.578125 3.90625-1.730469 5.160156-1.160156 1.25-2.730468 1.875-4.71875 1.875-1.941406 0-3.5-.625-4.679687-1.875-1.179688-1.253906-1.769531-2.972656-1.769531-5.160156v-20.550781h-13.523438v22.261719c0 5.050781 1.308594 9.046875 3.917969 11.984375 2.613281 2.933593 6.183593 4.402343 10.714843 4.402343 2.636719 0 4.972657-.535156 7.007813-1.605468 2.03125-1.066406 3.628906-2.46875 4.78125-4.199219v5.464844h13.664063v-21.765625c.179687-1.621094.738281-2.933594 1.671874-3.945313 1.152344-1.25 2.746094-1.878906 4.78125-1.878906 1.941407 0 3.492188.628906 4.648438 1.878906 1.15625 1.253907 1.734375 2.96875 1.734375 5.15625v20.554688h13.59375v-22.328125c0-5.007813-1.320313-8.980469-3.957031-11.917969zm0 0" fill="#fff"/><g fill-rule="evenodd"><path d="m210.792969 179.753906c10.25-15.964844 16.195312-34.960937 16.195312-55.34375 0-56.65625-45.925781-102.582031-102.582031-102.582031s-102.582031 45.925781-102.582031 102.582031c0 20.5625 6.046875 39.710938 16.464843 55.761719 21.398438-10.644531 52.308594-17.328125 86.675782-17.328125 33.917968 0 64.464844 6.511719 85.828125 16.910156zm0 0" fill="#fff"/><path d="m132.71875 106.3125c-.496094.039062-3.050781.195312-8.761719.195312-4.539062 0-7.761719-.140624-8.890625-.195312-17.542968-.792969-30.640625-3.933594-30.640625-7.695312 0-3.761719 13.097657-6.898438 30.640625-7.703126v12.269532c1.144532.085937 4.429688.285156 8.96875.285156 5.449219 0 8.175782-.234375 8.667969-.28125v-12.265625c17.507813.800781 30.574219 3.941406 30.574219 7.695313 0 3.75-13.0625 6.890624-30.574219 7.691406zm0-16.660156v-10.980469h24.433594v-16.746094h-66.519532v16.746094h24.429688v10.976563c-19.855469.9375-34.789062 4.980468-34.789062 9.828124 0 4.847657 14.933593 8.890626 34.789062 9.832032v35.1875h17.652344v-35.199219c19.808594-.9375 34.714844-4.980469 34.714844-9.824219s-14.890626-8.882812-34.714844-9.824218zm0 0" fill="#2c2c2c"/></g></svg>

<svg xmlns="http://www.w3.org/2000/svg" xmlns:xlink="http://www.w3.org/1999/xlink" width="250px" height="250px" viewBox="0 0 250 250" version="1.1">
<defs>
<linearGradient id="linear0" gradientUnits="userSpaceOnUse" x1="26.246401" y1="-0.000000559633" x2="108.634003" y2="19.0844" gradientTransform="matrix(2.293578,0,0,2.293578,0,0)">
<stop offset="0" style="stop-color:rgb(18.039216%,45.09804%,100%);stop-opacity:1;"/>
<stop offset="0.894147" style="stop-color:rgb(9.411765%,29.803923%,90.980393%);stop-opacity:1;"/>
</linearGradient>
</defs>
<g id="surface1">
<path style=" stroke:none;fill-rule:nonzero;fill:url(#linear0);" d="M 248.820312 124.410156 C 248.820312 193.121094 193.121094 248.820312 124.410156 248.820312 C 55.699219 248.820312 0 193.121094 0 124.410156 C 0 55.699219 55.699219 0 124.410156 0 C 193.121094 0 248.820312 55.699219 248.820312 124.410156 Z M 248.820312 124.410156 "/>
<path style=" stroke:none;fill-rule:nonzero;fill:rgb(100%,100%,100%);fill-opacity:1;" d="M 153.121094 187.890625 C 150.488281 184.953125 146.929688 183.484375 142.445312 183.484375 C 139.808594 183.484375 137.472656 184.023438 135.4375 185.09375 C 133.4375 186.144531 131.84375 187.511719 130.648438 189.199219 L 130.648438 183.828125 L 116.984375 183.828125 L 116.984375 204.378906 C 116.984375 206.566406 116.40625 208.285156 115.253906 209.539062 C 114.09375 210.789062 112.523438 211.414062 110.535156 211.414062 C 108.59375 211.414062 107.035156 210.789062 105.855469 209.539062 C 104.675781 208.285156 104.085938 206.566406 104.085938 204.378906 L 104.085938 183.828125 L 90.5625 183.828125 L 90.5625 206.089844 C 90.5625 211.140625 91.871094 215.136719 94.480469 218.074219 C 97.09375 221.007812 100.664062 222.476562 105.195312 222.476562 C 107.832031 222.476562 110.167969 221.941406 112.203125 220.871094 C 114.234375 219.804688 115.832031 218.402344 116.984375 216.671875 L 116.984375 222.136719 L 130.648438 222.136719 L 130.648438 200.371094 C 130.828125 198.75 131.386719 197.4375 132.320312 196.425781 C 133.472656 195.175781 135.066406 194.546875 137.101562 194.546875 C 139.042969 194.546875 140.59375 195.175781 141.75 196.425781 C 142.90625 197.679688 143.484375 199.394531 143.484375 201.582031 L 143.484375 222.136719 L 157.078125 222.136719 L 157.078125 199.808594 C 157.078125 194.800781 155.757812 190.828125 153.121094 187.890625 Z M 153.121094 187.890625 "/>
<path style=" stroke:none;fill-rule:evenodd;fill:rgb(100%,100%,100%);fill-opacity:1;" d="M 210.792969 179.753906 C 221.042969 163.789062 226.988281 144.792969 226.988281 124.410156 C 226.988281 67.753906 181.0625 21.828125 124.40625 21.828125 C 67.75 21.828125 21.824219 67.753906 21.824219 124.410156 C 21.824219 144.972656 27.871094 164.121094 38.289062 180.171875 C 59.6875 169.527344 90.597656 162.84375 124.964844 162.84375 C 158.882812 162.84375 189.429688 169.355469 210.792969 179.753906 Z M 210.792969 179.753906 "/>
<path style=" stroke:none;fill-rule:evenodd;fill:rgb(17.254902%,17.254902%,17.254902%);fill-opacity:1;" d="M 132.71875 106.3125 C 132.222656 106.351562 129.667969 106.507812 123.957031 106.507812 C 119.417969 106.507812 116.195312 106.367188 115.066406 106.3125 C 97.523438 105.519531 84.425781 102.378906 84.425781 98.617188 C 84.425781 94.855469 97.523438 91.71875 115.066406 90.914062 L 115.066406 103.183594 C 116.210938 103.269531 119.496094 103.46875 124.035156 103.46875 C 129.484375 103.46875 132.210938 103.234375 132.703125 103.1875 L 132.703125 90.921875 C 150.210938 91.722656 163.277344 94.863281 163.277344 98.617188 C 163.277344 102.367188 150.214844 105.507812 132.703125 106.308594 Z M 132.71875 89.652344 L 132.71875 78.671875 L 157.152344 78.671875 L 157.152344 61.925781 L 90.632812 61.925781 L 90.632812 78.671875 L 115.0625 78.671875 L 115.0625 89.648438 C 95.207031 90.585938 80.273438 94.628906 80.273438 99.476562 C 80.273438 104.324219 95.207031 108.367188 115.0625 109.308594 L 115.0625 144.496094 L 132.714844 144.496094 L 132.714844 109.296875 C 152.523438 108.359375 167.429688 104.316406 167.429688 99.472656 C 167.429688 94.628906 152.539062 90.589844 132.714844 89.648438 Z M 132.71875 89.652344 "/>
</g>
</svg>
